packages/merlin-www-assets/imports/brides/icons/figure-facebook.svg

<svg viewBox="0 0 16 16" xmlns="http://www.w3.org/2000/svg"><path d="m5.9 3.1v2.2h-1.6v2.7h1.6v8h3.3v-8h2.2s.2-1.3.3-2.7h-2.5v-1.9a.75.75 0 0 1 .7-.6h1.8v-2.8h-2.4c-3.5 0-3.4 2.7-3.4 3.1z"/></svg>

<svg id="share-facebook" xmlns="http://www.w3.org/2000/svg" viewBox="0 0 16 16"><title>share-facebook</title><path d="M5.9,3.1V5.3H4.3V8H5.9v8H9.2V8h2.2s0.2-1.3.3-2.7H9.2V3.4a0.75,0.75,0,0,1,.7-0.6h1.8V0H9.3C5.8,0,5.9,2.7,5.9,3.1h0Z"/></svg>
